X:474
T:La Soraxuana
T:Danza Les Vieyes
R:Danza
C:Tradicional. Recoyo de Clemente Daz
S:Msica Tradicional Asturiana, (C) Tello & Tito. Asturies, 2001.
S:http://pagina.de/MusTradAst <telloytito@asturies.org>
N:Xos Lluis Colodrn Ardura
A:Asturies
G:Arrg.
O:Mieres
Z:Revista Asturies
M:2/4
L:1/8
Q:1/4=100
E:2 Voces
K:C
|z3 B|
BBBB|c2 cc|dBAA|A2 A2|
|z4|z4|z4|z3 B|
BBBB|c2 cc|dBAA|A2 A2|
|z4|z4|z4|z3 B|
V:2
|z4|
z4|z4|z4|z3 B|
|BBBB|c2 cc|dBAA|A2 A2|
z4|z4|z4|z3 B|
|BBBB|c2 cc|dBAA|A2 A2|
